X: 17004
T: Headspinner, The
R: reel
M: 4/4
K: Cmajor
|:gfec d2ed|cAA2 GAce|gfec defg|(3abc' bg a2 c'a|
gfec d2ed|cAA2 GAcd|dece d2ed|(3cBA BG ABce:|
|:c3e g4|gac'a gede|c2 ec gcec|Addc (3Bcd G2|
cBce g4|gac'a gede|cege d2ed|(3cBA BG ABcd:|

